assets/crust-parachain/logo.svg

<svg width="64" height="64" viewBox="0 0 64 64" fill="none" xmlns="http://www.w3.org/2000/svg">
<rect width="64" height="64" fill="white"/>
<path d="M32 64C49.6731 64 64 49.6731 64 32C64 14.3269 49.6731 0 32 0C14.3269 0 0 14.3269 0 32C0 49.6731 14.3269 64 32 64Z" fill="white"/>
<path d="M16.6288 20.2459L34.2599 10.0669C34.87 9.71826 35.6171 9.71826 36.221 10.0669L47.3276 16.4794C48.2677 17.021 48.5914 18.2225 48.0498 19.1626C47.9627 19.312 47.863 19.4428 47.7448 19.5673L43.972 23.3463C43.3432 23.9751 42.372 24.1058 41.6 23.6638L36.2397 20.5696C35.6171 20.2148 34.8576 20.2148 34.235 20.5696L15.6514 31.4085V21.9455C15.6514 21.2482 16.0249 20.5945 16.6288 20.2459Z" fill="#F08727"/>
<path d="M47.3716 47.4955L36.2214 53.9329C35.6175 54.2815 34.8642 54.2815 34.2603 53.9329L16.6292 43.7539C16.019 43.4053 15.6455 42.7578 15.6455 42.0543V33.4691L24.735 28.2021V36.806C24.735 37.5095 25.1085 38.157 25.7187 38.5057L34.2665 43.4364C34.8704 43.785 35.6237 43.785 36.2276 43.4364L41.6377 40.3173C42.4097 39.8753 43.3809 39.9998 44.0035 40.6286L47.7762 44.4076C48.542 45.1734 48.542 46.4185 47.7762 47.1843C47.658 47.3088 47.521 47.4084 47.3716 47.4955Z" fill="#191919"/>
</svg>

<svg viewBox="0 0 64 64" xmlns="http://www.w3.org/2000/svg">
    <path fill="#fff" d="M32 64c17.673 0 32-14.327 32-32C64 14.327 49.673 0 32 0 14.327 0 0 14.327 0 32c0 17.673 14.327 32 32 32Z"/>
    <path fill="#f08727" d="m16.629 20.246 17.63-10.18a1.97 1.97 0 0 1 1.962 0l11.107 6.413a1.965 1.965 0 0 1 .722 2.684c-.087.149-.187.28-.305.404l-3.773 3.78a1.97 1.97 0 0 1-2.372.317l-5.36-3.094a2.02 2.02 0 0 0-2.005 0L15.651 31.409v-9.464c0-.697.374-1.35.978-1.7Z"/>
    <path fill="#191919" d="m47.372 47.495-11.15 6.438a1.97 1.97 0 0 1-1.962 0l-17.63-10.18a1.953 1.953 0 0 1-.984-1.699V33.47l9.089-5.267v8.604c0 .703.373 1.351.984 1.7l8.547 4.93a1.97 1.97 0 0 0 1.962 0l5.41-3.119a1.958 1.958 0 0 1 2.366.312l3.772 3.779a1.965 1.965 0 0 1-.404 3.087Z"/>
</svg>
